X:1
T:Title
%%score { ( 1 3 ) | ( 2 4 ) }
L:1/8
M:6/8
K:Bb
V:1 treble nm="Grand Piano"
V:3 treble 
V:2 bass 
V:4 bass 
V:1
 z3 z2[Q:1/4=84] [DF] | [DF][B,D][CE] [DF][Fd][Ec] | [DB]3- [DB]2 [FA] | GGG cBG | [DF]3- [DF]2 F | %5
 FAB c2 F | [DF][FB]c d2 [Ge] | dcB cBA |[M:5/8] [DB]-[DB]- [DB]3 |[M:1/8] B | %10
[M:3/4] [Ge]2 [Ge][Ge] [GB][^Fc] | [Fd]6 | [=Ed]c B[EG] [EA][EB] | [Ec]6 | %14
 [DF][DG] [DA] [DB]2 [DB] | Bc d [Ge]2 [Ge] | d>c Bc BA |[M:5/8] [DB]-[DB]- [DB]3 |] %18
V:2
 z3 z2 [B,,B,] | [B,,B,][B,,F,][B,,F,] [B,,B,][B,,B,][B,,B,] | [B,,B,]3- [B,,B,]2 [D,B,] | %3
 [E,B,E][E,B,E][E,B,E] [E,G,E][E,G,E][E,B,E] | [B,,B,]3- [B,,B,]2 [D,B,] | %5
 [F,A,E][F,CE][F,G,E] [F,A,E]2 [F,A,E] | [B,,B,][D,B,][K:treble][F,A,F] [B,F]2[K:bass] [E,B,] | %7
 [F,B,F][F,A,E][F,B,D] [F,E][F,D][F,C] |[M:5/8] [B,,F,]-[B,,F,]- [B,,F,]3 |[M:1/8] [B,_A] | %10
[M:3/4] [E,B,]3 [E,B,]2 [E,B,] | [B,,B,]D, F, B,2 [B,,B,] | z =E E [C,C]2 [C,G,] | %13
 [F,A,]F, F, F,2 [F,A,E] | [B,,B,][B,,B,] [B,,B,] [B,,F,]2 [B,,F,] | %15
 B,[K:treble][B,A] [B,_A][K:bass] [E,B,]2 [E,B,] | [F,B,F]>[F,A,E] [F,B,D][F,E] [F,D][F,C] | %17
[M:5/8] [B,,F,]-[B,,F,]- [B,,F,]3 |] %18
V:3
 x6 | x6 | x6 | x6 | x6 | x6 | x6 | x6 |[M:5/8] x5 |[M:1/8] x |[M:3/4] x6 | z B, .B,2 z [Fd] | x6 | %13
 z A, A, A,2 F | x6 | x6 | x6 |[M:5/8] x5 |] %18
V:4
 x6 | x6 | x6 | x6 | x6 | x6 | x2[K:treble] x3[K:bass] x | x6 |[M:5/8] x5 |[M:1/8] x |[M:3/4] x6 | %11
 x6 | [C,G,]4 z2 | x6 | x6 | x[K:treble] x2[K:bass] x3 | x6 |[M:5/8] x5 |] %18

